lib/brands/logos/brightcove.svg

<svg xmlns="http://www.w3.org/2000/svg" fill="none" aria-hidden="true" viewBox="0 0 250 48"><g id="Brightcove"><rect width="250" height="46.875" fill="#08088C" transform="translate(0 .604)"/><path id="Vector" fill="#05EAE4" d="M56.0435 4.56324H64.2174V43.3459H56.0435V4.56324ZM51.1739 14.8241V16.3893C51.1739 21.2589 49.4348 23.5198 44.913 24.0415V24.7372C49.4348 25.2589 51.1739 27.3458 51.1739 32.3893V43.5198H43V32.0415C43 28.9111 42.1304 28.0415 39.6957 28.0415H36.913V43.5198H28.7391V4.56324H41.2609C48.5652 4.56324 51.1739 7.69368 51.1739 14.8241ZM43 15.3459C43 12.2154 42.1304 11.3459 39.6957 11.3459H36.913V21.4328H39.1739C41.9565 21.4328 43 20.3893 43 17.2589V15.3459ZM24.3913 31.3459V33.2589C24.3913 40.3893 21.7826 43.5198 14.4783 43.5198H1.6087V4.56324H14.3044C21.6087 4.56324 24.2174 7.51976 24.2174 14.8241V15.3459C24.2174 20.2154 22.4783 22.4763 17.9565 22.998V23.6937C22.6522 24.2154 24.3913 26.3024 24.3913 31.3459ZM9.78262 20.3893H12.3913C15.1739 20.3893 16.2174 19.3459 16.2174 16.2154V15.3459C16.2174 12.2154 15.3478 11.3459 12.9131 11.3459H9.78262V20.3893ZM16.2174 30.998C16.2174 27.8676 15.3478 26.998 12.9131 26.998H9.78262V36.7372H12.7391C15.1739 36.7372 16.0435 35.8676 16.0435 32.7372V30.998H16.2174ZM80.3913 4.0415C73.087 4.0415 69.2609 8.0415 69.2609 15.6937V33.6067C69.2609 40.7372 72.2174 44.0415 78.6522 44.0415C84.0435 44.0415 86.1304 41.7806 86.4783 36.3893H86.8261L87.8696 43.5198H91.5217V21.9545H80.3913V27.8676H83.6957V33.6067C83.6957 36.3893 82.6522 37.4328 80.5652 37.4328C78.4783 37.4328 77.4348 36.2154 77.4348 33.6067V14.4763C77.4348 11.6937 78.4783 10.6502 80.3913 10.6502C82.3044 10.6502 83.3478 11.6937 83.3478 14.4763V18.6502H91.3478V15.3459C91.5217 7.86759 87.6957 4.0415 80.3913 4.0415ZM205.609 36.7372H204.913L201.957 4.56324H193.609L198.13 43.3459H211.696L216.043 4.56324H208.565L205.609 36.7372ZM190.826 15.6937V32.3893C190.826 40.0415 187 44.0415 179.522 44.0415C172.217 44.0415 168.217 40.0415 168.217 32.3893V15.6937C168.217 8.0415 172.043 4.0415 179.522 4.0415C187 4.0415 190.826 8.0415 190.826 15.6937ZM182.652 14.4763C182.652 11.6937 181.609 10.6502 179.522 10.6502C177.435 10.6502 176.391 11.8676 176.391 14.4763V33.6067C176.391 36.3893 177.435 37.4328 179.522 37.4328C181.609 37.4328 182.652 36.2154 182.652 33.6067V14.4763ZM237.783 11.3459V4.56324H219.348V43.3459H237.783V36.5632H227.522V26.998H237.087V20.5632H227.522V11.3459H237.783ZM121.435 11.3459H127.174V43.5198H135.348V11.3459H141.087V4.56324H121.435V11.3459ZM153.783 4.0415C146.652 4.0415 142.826 8.0415 142.826 15.6937V32.3893C142.826 40.0415 146.652 44.0415 153.783 44.0415C161.087 44.0415 164.739 40.2154 164.739 32.7372V28.0415H156.739V33.6067C156.739 36.3893 155.696 37.4328 153.783 37.4328C151.87 37.4328 150.826 36.2154 150.826 33.6067V14.4763C150.826 11.6937 151.87 10.6502 153.783 10.6502C155.696 10.6502 156.739 11.8676 156.739 14.4763V19.6937H164.739V15.3459C164.739 7.86759 160.913 4.0415 153.783 4.0415ZM110.478 20.5632H104.739V4.56324H96.5652V43.3459H104.739V26.998H110.478V43.3459H118.652V4.56324H110.478V20.5632V20.5632ZM244.391 4.73716C242.13 4.73716 240.391 6.47629 240.391 8.73716C240.391 10.998 242.13 12.7372 244.391 12.7372C246.652 12.7372 248.391 10.998 248.391 8.73716C248.391 6.47629 246.652 4.73716 244.391 4.73716ZM244.391 12.2154C242.478 12.2154 240.913 10.8241 240.913 8.73716C240.913 6.6502 242.304 5.2589 244.391 5.2589C246.304 5.2589 247.87 6.6502 247.87 8.73716C247.87 10.8241 246.304 12.2154 244.391 12.2154ZM246.13 8.0415C246.13 7.17194 245.609 6.6502 244.565 6.6502H242.826V10.4763H243.696V9.43281H244.565L245.261 10.8241H246.13L245.261 9.2589C245.783 8.91107 246.13 8.56324 246.13 8.0415ZM245.261 8.0415C245.261 8.38933 245.087 8.56324 244.565 8.56324H243.696V7.51976H244.565C245.087 7.51976 245.261 7.69368 245.261 8.0415Z"/></g></svg>

<svg xmlns="http://www.w3.org/2000/svg" fill="none" aria-hidden="true" viewBox="0 0 250 48"><path fill="#08088C" d="M0 .604h250v46.875H0z"/><path fill="#05EAE4" d="M56.044 4.563h8.173v38.783h-8.173V4.563Zm-4.87 10.261v1.565c0 4.87-1.74 7.13-6.261 7.652v.696c4.522.522 6.26 2.609 6.26 7.652v11.13H43V32.043c0-3.13-.87-4-3.304-4h-2.783V43.52h-8.174V4.563h12.522c7.304 0 9.913 3.13 9.913 10.261ZM43 15.346c0-3.13-.87-4-3.304-4h-2.783v10.087h2.26c2.783 0 3.827-1.044 3.827-4.174v-1.913Zm-18.609 16v1.913c0 7.13-2.608 10.26-9.913 10.26H1.608V4.564h12.696c7.305 0 9.913 2.957 9.913 10.261v.522c0 4.87-1.739 7.13-6.26 7.652v.696c4.695.521 6.434 2.608 6.434 7.652ZM9.783 20.389h2.608c2.783 0 3.826-1.043 3.826-4.174v-.87c0-3.13-.87-4-3.304-4h-3.13v9.044Zm6.434 10.609c0-3.13-.87-4-3.304-4h-3.13v9.74h2.956c2.435 0 3.305-.87 3.305-4v-1.74h.173ZM80.391 4.041c-7.304 0-11.13 4-11.13 11.653v17.913c0 7.13 2.956 10.434 9.391 10.434 5.391 0 7.478-2.26 7.826-7.652h.348l1.044 7.13h3.652V21.956h-11.13v5.913h3.304v5.739c0 2.782-1.044 3.826-3.13 3.826-2.088 0-3.131-1.218-3.131-3.826v-19.13c0-2.783 1.043-3.827 2.956-3.827s2.957 1.044 2.957 3.826v4.174h8v-3.304C91.522 7.868 87.696 4.04 80.39 4.04ZM205.61 36.737h-.696l-2.956-32.174h-8.348l4.521 38.783h13.566l4.347-38.783h-7.478l-2.956 32.174Zm-14.783-21.043v16.695c0 7.652-3.826 11.652-11.304 11.652-7.305 0-11.305-4-11.305-11.652V15.694c0-7.653 3.826-11.653 11.305-11.653 7.478 0 11.304 4 11.304 11.653Zm-8.174-1.218c0-2.782-1.043-3.826-3.13-3.826-2.087 0-3.131 1.218-3.131 3.826v19.13c0 2.783 1.044 3.827 3.131 3.827 2.087 0 3.13-1.218 3.13-3.826v-19.13Zm55.131-3.13V4.563h-18.435v38.783h18.435v-6.783h-10.261v-9.565h9.565v-6.435h-9.565v-9.217h10.261Zm-116.348 0h5.739V43.52h8.174V11.346h5.739V4.563h-19.652v6.783Zm32.348-7.304c-7.131 0-10.957 4-10.957 11.652v16.695c0 7.652 3.826 11.652 10.957 11.652 7.304 0 10.956-3.826 10.956-11.304v-4.696h-8v5.566c0 2.782-1.043 3.826-2.956 3.826s-2.957-1.218-2.957-3.826v-19.13c0-2.783 1.044-3.827 2.957-3.827 1.913 0 2.956 1.218 2.956 3.826v5.218h8v-4.348c0-7.478-3.826-11.305-10.956-11.305Zm-43.305 16.521h-5.739v-16h-8.174v38.783h8.174V26.998h5.739v16.348h8.174V4.563h-8.174v16ZM244.391 4.737c-2.261 0-4 1.74-4 4 0 2.261 1.739 4 4 4s4-1.739 4-4c0-2.26-1.739-4-4-4Zm0 7.478c-1.913 0-3.478-1.39-3.478-3.478 0-2.087 1.391-3.478 3.478-3.478 1.913 0 3.479 1.391 3.479 3.478s-1.566 3.478-3.479 3.478Zm1.739-4.174c0-.87-.521-1.39-1.565-1.39h-1.739v3.825h.87V9.433h.869l.696 1.391h.869l-.869-1.565c.522-.348.869-.696.869-1.218Zm-.869 0c0 .348-.174.522-.696.522h-.869V7.52h.869c.522 0 .696.174.696.521Z"/></svg>
